icons/svg/shields/h_topo_water_tap_shield.svg

<?xml version="1.0" encoding="UTF-8" standalone="no"?>
<!-- Created with Inkscape (http://www.inkscape.org/) -->

<svg
   xmlns:dc="http://purl.org/dc/elements/1.1/"
   xmlns:cc="http://creativecommons.org/ns#"
   xmlns:rdf="http://www.w3.org/1999/02/22-rdf-syntax-ns#"
   xmlns:svg="http://www.w3.org/2000/svg"
   xmlns="http://www.w3.org/2000/svg"
   xmlns:sodipodi="http://sodipodi.sourceforge.net/DTD/sodipodi-0.dtd"
   xmlns:inkscape="http://www.inkscape.org/namespaces/inkscape"
   version="1.0"
   width="16"
   height="16"
   id="svg2"
   sodipodi:version="0.32"
   inkscape:version="0.91 r13725"
   sodipodi:docname="h_topo_water_tap_shield.svg"
   inkscape:output_extension="org.inkscape.output.svg.inkscape">
  <metadata
     id="metadata10">
    <rdf:RDF>
      <cc:Work
         rdf:about="">
        <dc:format>image/svg+xml</dc:format>
        <dc:type
           rdf:resource="http://purl.org/dc/dcmitype/StillImage" />
        <cc:license
           rdf:resource="http://web.resource.org/cc/PublicDomain" />
        <dc:language>en</dc:language>
        <dc:title></dc:title>
      </cc:Work>
    </rdf:RDF>
  </metadata>
  <sodipodi:namedview
     inkscape:window-height="1006"
     inkscape:window-width="1920"
     inkscape:pageshadow="2"
     inkscape:pageopacity="0.0"
     guidetolerance="10.0"
     gridtolerance="10.0"
     objecttolerance="10.0"
     borderopacity="1.0"
     bordercolor="#666666"
     pagecolor="#ffffff"
     id="base"
     showgrid="false"
     inkscape:zoom="32"
     inkscape:cx="4.2087741"
     inkscape:cy="8.9837198"
     inkscape:window-x="1920"
     inkscape:window-y="0"
     inkscape:current-layer="svg2"
     inkscape:window-maximized="1" />
  <defs
     id="defs4">
    <inkscape:perspective
       sodipodi:type="inkscape:persp3d"
       inkscape:vp_x="0 : 290 : 1"
       inkscape:vp_y="0 : 1000 : 0"
       inkscape:vp_z="580 : 290 : 1"
       inkscape:persp3d-origin="290 : 193.33333 : 1"
       id="perspective12" />
    <style
       type="text/css"
       id="style6">
   
    .fil0 {fill:#EF7900}
   
  </style>
    <inkscape:perspective
       id="perspective6807"
       inkscape:persp3d-origin="29.116032 : 19.410688 : 1"
       inkscape:vp_z="58.232063 : 29.116032 : 1"
       inkscape:vp_y="0 : 1000 : 0"
       inkscape:vp_x="0 : 29.116032 : 1"
       sodipodi:type="inkscape:persp3d" />
    <inkscape:perspective
       id="perspective6954"
       inkscape:persp3d-origin="290 : 193.33333 : 1"
       inkscape:vp_z="580 : 290 : 1"
       inkscape:vp_y="0 : 1000 : 0"
       inkscape:vp_x="0 : 290 : 1"
       sodipodi:type="inkscape:persp3d" />
    <inkscape:perspective
       id="perspective2541"
       inkscape:persp3d-origin="240 : 160 : 1"
       inkscape:vp_z="480 : 240 : 1"
       inkscape:vp_y="0 : 1000 : 0"
       inkscape:vp_x="0 : 240 : 1"
       sodipodi:type="inkscape:persp3d" />
    <inkscape:perspective
       id="perspective2750"
       inkscape:persp3d-origin="215 : 143.33333 : 1"
       inkscape:vp_z="430 : 215 : 1"
       inkscape:vp_y="0 : 1000 : 0"
       inkscape:vp_x="0 : 215 : 1"
       sodipodi:type="inkscape:persp3d" />
    <inkscape:perspective
       id="perspective3730"
       inkscape:persp3d-origin="88.929146 : 101.19778 : 1"
       inkscape:vp_z="177.85829 : 151.79668 : 1"
       inkscape:vp_y="0 : 1000 : 0"
       inkscape:vp_x="0 : 151.79668 : 1"
       sodipodi:type="inkscape:persp3d" />
  </defs>
  <path
     sodipodi:type="inkscape:offset"
     inkscape:radius="0.94736135"
     inkscape:original="M 7.59375 3.6054688 C 7.2243378 3.6054687 6.921875 3.9117926 6.921875 4.28125 C 6.921875 4.6507074 7.2243378 4.9570312 7.59375 4.9570312 C 7.7990207 4.9570312 8.0120136 4.8793722 8.2734375 4.7871094 C 8.2888205 4.7822894 8.2917306 4.7782295 8.3066406 4.7734375 L 8.3066406 5.6269531 C 8.0381377 5.7718337 7.829244 6.0242722 7.6894531 6.3066406 C 7.5502872 6.5877469 7.4709684 6.9261608 7.421875 7.2851562 L 6.4375 7.2792969 L 5.8632812 7.2753906 C 4.1977154 7.2491067 3.1673881 8.1527978 2.7617188 9.0234375 C 2.3560492 9.8940772 2.4238281 10.736328 2.4238281 10.736328 L 3.9199219 10.638672 C 3.9199219 10.638672 3.8994439 10.127758 4.1191406 9.65625 C 4.338837 9.18475 4.6465954 8.7565602 5.8398438 8.7753906 L 5.84375 8.7753906 L 6.4277344 8.7773438 L 7.4863281 8.7832031 C 7.5391171 8.9974562 7.6003538 9.2047908 7.6894531 9.3847656 C 7.8995483 9.8091444 8.2514282 10.189453 8.7558594 10.189453 C 9.2602905 10.189453 9.6121704 9.8091444 9.8222656 9.3847656 C 9.9090976 9.2093719 9.9675509 9.0068784 10.019531 8.7988281 L 13.753906 8.8203125 L 13.763672 7.3222656 L 10.087891 7.3007812 C 10.039992 6.9358562 9.9633899 6.5917024 9.8222656 6.3066406 C 9.6824748 6.0242722 9.4735811 5.7718336 9.2050781 5.6269531 L 9.2050781 4.765625 C 9.2241751 4.772995 9.2322181 4.7796804 9.2519531 4.7871094 C 9.513377 4.8793724 9.7263699 4.9570312 9.9316406 4.9570312 C 10.301053 4.9570312 10.603516 4.6507073 10.603516 4.28125 C 10.603516 3.9117927 10.301053 3.6054687 9.9316406 3.6054688 L 9.9238281 3.6054688 C 9.7255193 3.6131588 9.5147468 3.6941398 9.2519531 3.7871094 C 9.140372 3.8205854 9.0986964 3.8503565 9.0117188 3.8828125 A 0.44963108 0.44963108 0 0 0 8.7480469 3.8027344 A 0.44963108 0.44963108 0 0 0 8.4980469 3.8847656 C 8.4192346 3.851786 8.3693264 3.8212101 8.2753906 3.7871094 C 8.0126 3.6941398 7.8018244 3.6131557 7.6035156 3.6054688 L 7.59375 3.6054688 z "
     style="color:#000000;font-style:normal;font-variant:normal;font-weight:normal;font-stretch:normal;font-size:medium;line-height:normal;font-family:sans-serif;text-indent:0;text-align:start;text-decoration:none;text-decoration-line:none;text-decoration-style:solid;text-decoration-color:#000000;letter-spacing:normal;word-spacing:normal;text-transform:none;direction:ltr;block-progression:tb;writing-mode:lr-tb;baseline-shift:baseline;text-anchor:start;white-space:normal;clip-rule:nonzero;display:inline;overflow:visible;visibility:visible;opacity:0.98512196;isolation:auto;mix-blend-mode:normal;color-interpolation:sRGB;color-interpolation-filters:linearRGB;solid-color:#000000;solid-opacity:1;fill:#ffffff;fill-opacity:1;fill-rule:nonzero;stroke:none;stroke-width:0.44958612;stroke-linecap:round;stroke-linejoin:round;stroke-miterlimit:4;stroke-dasharray:none;stroke-dashoffset:0;stroke-opacity:1;color-rendering:auto;image-rendering:auto;shape-rendering:auto;text-rendering:auto;enable-background:accumulate"
     id="path4178"
     d="m 7.59375,2.6582031 c -0.8931262,-2e-7 -1.6191406,0.7365401 -1.6191406,1.6230469 0,0.671617 0.4740519,1.1461895 1.0644531,1.390625 -0.049523,0.080263 -0.1586839,0.1329661 -0.1992187,0.2148438 -0.073872,0.1492167 -0.07696,0.2972185 -0.125,0.4472656 L 6.4433594,6.3320312 5.8789062,6.328125 C 3.8646301,6.2963382 2.4613792,7.4232558 1.9023438,8.6230469 1.3808245,9.7423207 1.4804688,10.8125 1.4804688,10.8125 a 0.94745609,0.94745609 0 0 0 1.0058593,0.869141 l 1.4960938,-0.09766 a 0.94745609,0.94745609 0 0 0 0.8847656,-0.982422 c 0,0 0.011802,-0.331321 0.1113281,-0.544921 C 5.063207,9.8748808 5.081946,9.8584304 5.1289062,9.828125 5.1758665,9.7978196 5.3421553,9.7150489 5.8242188,9.7226562 a 0.94745609,0.94745609 0 0 0 0.015625,0 l 0.00195,0 0.5820312,0.00195 0.3886719,0.00195 c 0.012617,0.027706 0.013473,0.050106 0.027344,0.078125 0.2968556,0.5996295 0.9354181,1.3320315 1.9160156,1.3320315 0.9805974,0 1.6191596,-0.732402 1.9160156,-1.3320315 0.0099,-0.020085 0.01028,-0.034814 0.01953,-0.054687 l 3.056641,0.017578 a 0.94745609,0.94745609 0 0 0 0.953125,-0.9414062 l 0.0098,-1.4980469 A 0.94745609,0.94745609 0 0 0 13.769531,6.375 l -2.96875,-0.017578 C 10.751949,6.1991543 10.750292,6.0451168 10.671875,5.8867188 10.632104,5.8063838 10.524977,5.7545805 10.476562,5.6757812 11.072213,5.4338252 11.550781,4.9566249 11.550781,4.28125 c 0,-0.8865071 -0.726014,-1.6230471 -1.6191404,-1.6230469 l -0.00781,0 a 0.94745609,0.94745609 0 0 0 -0.037109,0 c -0.4234351,0.01642 -0.6905986,0.1441442 -0.9375,0.2324219 -0.025488,0.00833 -0.021524,0.00977 -0.042969,0.017578 -0.061171,-0.00723 -0.112221,-0.053757 -0.1738281,-0.052734 a 0.94745609,0.94745609 0 0 0 -0.00391,0 c -0.045176,9.091e-4 -0.082099,0.035665 -0.1269531,0.041016 -0.00101,-3.683e-4 -9.362e-4,3.691e-4 -0.00195,0 a 0.94745609,0.94745609 0 0 0 -0.00781,-0.00195 C 8.3419267,2.8061326 8.0703102,2.6748587 7.640625,2.6582031 a 0.94745609,0.94745609 0 0 0 -0.037109,0 l -0.00977,0 z" />
</svg>

<svg width="16" height="16" viewBox="0 0 16 16" fill="none" xmlns="http://www.w3.org/2000/svg">
<path opacity="0.985122" d="M7.59375 2.6582C6.70063 2.6582 5.97461 3.39474 5.97461 4.28125C5.97461 4.95287 6.44866 5.42744 7.03907 5.67187C6.98954 5.75214 6.88038 5.80484 6.83985 5.88672C6.76597 6.03593 6.76289 6.18394 6.71485 6.33398L6.44336 6.33203L5.87891 6.32812C3.86463 6.29634 2.46138 7.42325 1.90235 8.62305C1.38083 9.74232 1.48047 10.8125 1.48047 10.8125C1.5005 11.0604 1.61721 11.2905 1.80539 11.4531C1.99358 11.6157 2.23815 11.6978 2.48633 11.6816L3.98242 11.584C4.22885 11.5678 4.45922 11.4561 4.62449 11.2726C4.78975 11.0891 4.87683 10.8483 4.86719 10.6016C4.86719 10.6016 4.87899 10.2702 4.97852 10.0566C5.06321 9.87488 5.08195 9.85843 5.12891 9.82812C5.17587 9.79782 5.34216 9.71505 5.82422 9.72265C5.82943 9.7227 5.83464 9.7227 5.83985 9.72265H5.8418L6.42383 9.72461L6.8125 9.72655C6.82512 9.75426 6.82597 9.77666 6.83984 9.80468C7.1367 10.4043 7.77526 11.1367 8.75586 11.1367C9.73646 11.1367 10.375 10.4043 10.6719 9.80468C10.6818 9.78459 10.6822 9.76987 10.6914 9.74999L13.748 9.76757C13.9993 9.76908 14.2408 9.67075 14.4195 9.49422C14.5983 9.31768 14.6996 9.07738 14.7012 8.82616L14.711 7.32812C14.7125 7.0769 14.6141 6.83536 14.4376 6.65663C14.2611 6.47789 14.0208 6.37659 13.7695 6.375L10.8008 6.35742C10.752 6.19915 10.7503 6.04512 10.6719 5.88672C10.6321 5.80638 10.525 5.75458 10.4766 5.67578C11.0722 5.43382 11.5508 4.95662 11.5508 4.28125C11.5508 3.39474 10.8248 2.6582 9.93164 2.6582H9.92383C9.91147 2.65796 9.89909 2.65796 9.88672 2.6582C9.46329 2.67462 9.19613 2.80235 8.94922 2.89062C8.92374 2.89895 8.9277 2.90039 8.90626 2.9082C8.84508 2.90097 8.79403 2.85444 8.73243 2.85547C8.73112 2.85546 8.72982 2.85546 8.72852 2.85547C8.68334 2.85638 8.64642 2.89113 8.60156 2.89648C8.60055 2.89612 8.60063 2.89685 8.59961 2.89648C8.59701 2.89582 8.59441 2.89517 8.5918 2.89453C8.34193 2.80613 8.07031 2.67486 7.64063 2.6582C7.62826 2.65796 7.61589 2.65796 7.60352 2.6582H7.59375H7.59375Z" fill="white"/>
</svg>
